icons/1_Primary/FanDuel.svg

<svg width="1024" height="1024" fill="none" xmlns="http://www.w3.org/2000/svg"><g clip-path="url(#a)"><path d="M512 1024c282.77 0 512-229.23 512-512S794.77 0 512 0 0 229.23 0 512s229.23 512 512 512Z" fill="#9ABEFF"/><path d="M514.32 787.15a2.656 2.656 0 0 1-3.67-1 463.6 463.6 0 0 1-51.1-149.67 1.501 1.501 0 0 1 2.57-1.26A423.775 423.775 0 0 0 512 680.06a421.31 421.31 0 0 0 162.21-280.92A420.42 420.42 0 0 0 512 366.81c-4.36 0-8.693.067-13 .2a1.507 1.507 0 0 1-1.41-2.14 466.875 466.875 0 0 1 51.51-85.07 4.39 4.39 0 0 1 3.85-1.72 511.325 511.325 0 0 1 212.94 65.66 4.233 4.233 0 0 1 2.11 3.67c0 186.34-102.57 351.26-253.68 439.73v.01Zm-90.62-198.7a421.947 421.947 0 0 1-27.81-45 269.16 269.16 0 0 1 26-10.72 4.287 4.287 0 0 0 1.996-1.449 4.287 4.287 0 0 0 .864-2.311 496.087 496.087 0 0 1 15-92.56 1.444 1.444 0 0 0-.348-1.364 1.455 1.455 0 0 0-1.342-.426 358.608 358.608 0 0 0-76 24.88 418.982 418.982 0 0 1-12.31-60.39A418.747 418.747 0 0 1 460.18 370a3.997 3.997 0 0 0 3.15-2.37c13.45-31.49 29.38-59.65 49.36-88.93a1.39 1.39 0 0 0-1.14-2.17c-94.81.44-178.42 24.75-253.29 67.17a4.506 4.506 0 0 0-2.26 3.91c0 160.55 80 312.19 202.36 405.22a1.47 1.47 0 0 0 2.24-1.73 494.571 494.571 0 0 1-36.21-160.65 3.742 3.742 0 0 0-.69-2Z" fill="#fff"/></g><defs><clipPath id="a"><path fill="#fff" d="M0 0h1024v1024H0z"/></clipPath></defs></svg>

<svg width="1024" height="1024" viewBox="0 0 1024 1024" fill="none" xmlns="http://www.w3.org/2000/svg">
<g clip-path="url(#clip0_2_2157)">
<path d="M512 1024C794.77 1024 1024 794.77 1024 512C1024 229.23 794.77 0 512 0C229.23 0 0 229.23 0 512C0 794.77 229.23 1024 512 1024Z" fill="#9ABEFF"/>
<path d="M514.32 787.15C514.014 787.33 513.676 787.446 513.325 787.493C512.974 787.54 512.616 787.516 512.275 787.422C511.933 787.329 511.613 787.169 511.334 786.95C511.055 786.732 510.822 786.46 510.65 786.15C485.17 739.555 467.885 688.929 459.55 636.48C459.502 636.165 459.556 635.842 459.703 635.559C459.851 635.276 460.086 635.047 460.372 634.907C460.659 634.766 460.983 634.721 461.298 634.777C461.612 634.834 461.9 634.989 462.12 635.22C477.536 651.461 494.215 666.455 512 680.06C556.259 646.277 593.383 604.055 621.225 555.837C649.067 507.619 667.076 454.361 674.21 399.14C622.814 377.729 567.677 366.739 512 366.81C507.64 366.81 503.307 366.877 499 367.01C498.744 367.017 498.49 366.958 498.263 366.839C498.035 366.72 497.842 366.546 497.701 366.332C497.56 366.117 497.476 365.871 497.456 365.615C497.437 365.36 497.483 365.103 497.59 364.87C511.682 334.761 528.95 306.242 549.1 279.8C549.546 279.213 550.132 278.748 550.805 278.448C551.478 278.147 552.215 278.021 552.95 278.08C627.894 284.046 700.6 306.465 765.89 343.74C766.533 344.113 767.067 344.648 767.437 345.292C767.808 345.937 768.002 346.667 768 347.41C768 533.75 665.43 698.67 514.32 787.14V787.15ZM423.7 588.45C413.498 574.047 404.21 559.017 395.89 543.45C404.364 539.426 413.042 535.848 421.89 532.73C422.683 532.453 423.377 531.949 423.886 531.281C424.394 530.612 424.695 529.808 424.75 528.97C426.816 497.713 431.839 466.721 439.75 436.41C439.813 436.172 439.814 435.922 439.753 435.683C439.692 435.444 439.571 435.225 439.402 435.046C439.233 434.867 439.021 434.734 438.786 434.659C438.551 434.585 438.301 434.571 438.06 434.62C411.878 440.054 386.387 448.399 362.06 459.5C356.48 439.7 352.365 419.515 349.75 399.11C385.058 384.409 422.213 374.615 460.18 370C460.865 369.911 461.515 369.646 462.067 369.23C462.619 368.815 463.054 368.264 463.33 367.63C476.78 336.14 492.71 307.98 512.69 278.7C512.831 278.492 512.913 278.249 512.927 277.998C512.941 277.747 512.887 277.497 512.77 277.274C512.653 277.051 512.478 276.864 512.263 276.733C512.048 276.602 511.802 276.532 511.55 276.53C416.74 276.97 333.13 301.28 258.26 343.7C257.572 344.095 257.001 344.665 256.604 345.351C256.207 346.038 255.999 346.817 256 347.61C256 508.16 336 659.8 458.36 752.83C458.617 753.021 458.93 753.123 459.25 753.12C459.571 753.117 459.882 753.01 460.135 752.814C460.389 752.618 460.572 752.344 460.656 752.035C460.739 751.726 460.72 751.397 460.6 751.1C439.637 699.95 427.397 645.648 424.39 590.45C424.357 589.731 424.118 589.037 423.7 588.45Z" fill="white"/>
</g>
<defs>
<clipPath id="clip0_2_2157">
<rect width="1024" height="1024" fill="white"/>
</clipPath>
</defs>
</svg>
